X:1 
T:Australian Waters #2
R:jig
Z:C. McGrew from M.Bogner's transcription of Altan
M:6/8
Q:3/8=120
K:A
c/d/| e2e fec| eaf ecA| c2a eca| ecA Bcd| 
    e^de fec| eaf ecA| cde Bcd| cAG A2 :|
E | Ace aga| eca ecA| c2a eca | ecA B2G|
  | Ace aga| eca ecA| cde Bcd| cAG A2 :|
